packages/common/public/images/close.svg

<svg viewBox="0 0 12 12" xmlns="http://www.w3.org/2000/svg"><path d="m14 12h6c.5522847 0 1 .4477153 1 1s-.4477153 1-1 1h-6v6c0 .5522847-.4477153 1-1 1s-1-.4477153-1-1v-6h-6c-.55228475 0-1-.4477153-1-1s.44771525-1 1-1h6v-6c0-.55228475.4477153-1 1-1s1 .44771525 1 1z" transform="matrix(.70710678 .70710678 -.70710678 .70710678 6 -12.384776)"/></svg>

<svg viewBox="0 0 12 12" version="1.1" xmlns="http://www.w3.org/2000/svg" xmlns:xlink="http://www.w3.org/1999/xlink">
    <g stroke="none" stroke-width="1" fill-rule="evenodd">
        <g transform="translate(-1002.000000, -178.000000)">
            <g transform="translate(995.000000, 171.000000)">
                <mask id="mask-2" fill="white">
                  <use xlink:href="#path-1"></use>
                </mask>
                <g fill-rule="nonzero" transform="translate(13.000000, 13.000000) rotate(-315.000000) translate(-13.000000, -13.000000)">
                  <path d="M14,12 L20,12 C20.5522847,12 21,12.4477153 21,13 C21,13.5522847 20.5522847,14 20,14 L14,14 L14,20 C14,20.5522847 13.5522847,21 13,21 C12.4477153,21 12,20.5522847 12,20 L12,14 L6,14 C5.44771525,14 5,13.5522847 5,13 C5,12.4477153 5.44771525,12 6,12 L12,12 L12,6 C12,5.44771525 12.4477153,5 13,5 C13.5522847,5 14,5.44771525 14,6 L14,12 Z" id="path-1"></path>
                </g>
            </g>
        </g>
    </g>
</svg>
